X: 7435
T: Cloud Nine
R: reel
M: 4/4
K: Dmajor
|:d3 B AFDF|GEED EDCE|DDED FDGD|AABA cABc|
dfed cd=cd|Bd^Ad =AGFE|DDED FDGD|EDCE D4:|
|:A2 dA AeAA|fAAe AAdB|GABd ABdf|eAfA a2 FA|
A2 dA AeAA|fedf edBA|GAFA FEDA|GEAF E4:|

